dist/img/expert/350.svg

<svg width="153" height="40" viewBox="0 0 153 40" fill="none" xmlns="http://www.w3.org/2000/svg">
<path d="M40.9414 0.0175781C44.099 0.0175781 46.0195 0.75 46.7031 2.21484C47.3867 3.67969 47.4844 5.33984 46.9961 7.19531C45.401 9.63672 43.4479 11.5736 41.1367 13.0059C37.2305 15.1217 35.4238 17.1725 35.7168 19.1582C34.6426 26.7428 31.9082 31.7396 27.5137 34.1484C23.1517 36.5247 18.0736 38.1686 12.2793 39.0801C8.79622 38.5592 6.11068 37.6478 4.22266 36.3457C1.68359 35.4993 0.609375 34.0345 1 31.9512C1.35807 29.8678 2.51367 28.7936 4.4668 28.7285L7.10352 33.6602L12.7188 34.9297C18.6107 34.3112 23.0378 32.8464 26 30.5352C28.9948 28.1914 30.7038 25.4408 31.127 22.2832L29.9551 19.1582L28.3438 17.1562C36.7422 11.6875 41.3809 8.44857 42.2598 7.43945C43.041 3.79362 40.5833 3.09375 34.8867 5.33984C30.069 8.98568 27.6927 11.4108 27.7578 12.6152C27.8555 13.7871 27.4648 14.4056 26.5859 14.4707C25.707 14.5033 24.9909 13.9336 24.4375 12.7617C24.6003 10.5807 26.4557 7.78125 30.0039 4.36328C33.3893 1.46615 37.0352 0.0175781 40.9414 0.0175781ZM91.625 3.77734C87.7513 3.67969 83.6335 3.85872 79.2715 4.31445C74.6165 4.54232 71.2637 6.02344 69.2129 8.75781L63.8418 16.0332C66.5111 15.6751 69.7174 15.903 73.4609 16.7168C77.237 17.498 79.125 19.8581 79.125 23.7969C75.3164 30.2747 69.3594 35.0111 61.2539 38.0059L55.7363 39.373C50.6582 39.5033 47.5983 38.4453 46.5566 36.1992C46.3939 34.4414 47.3867 33.4811 49.5352 33.3184C50.7721 35.3366 53.0508 36.2155 56.3711 35.9551C60.6354 35.1738 63.8418 33.9531 65.9902 32.293C70.1569 29.8516 72.8587 27.6868 74.0957 25.7988C75.3652 23.9108 75.6745 22.446 75.0234 21.4043C74.3724 20.3626 72.4355 19.5814 69.2129 19.0605L63.8906 19.0117L60.375 21.8926C58.8451 22.0553 57.8522 21.4206 57.3965 19.9883V18.0352C61.14 12.6641 65.4206 7.4069 70.2383 2.26367C71.4427 1.12435 79.5319 0.66862 94.5059 0.896484C94.571 2.23112 93.6107 3.19141 91.625 3.77734ZM119.848 0.0175781C123.852 0.961589 126.081 2.73568 126.537 5.33984C126.993 7.94401 126.114 11.5573 123.9 16.1797C121.687 20.7695 116.967 25.4408 109.74 30.1934C102.546 34.946 97.6471 37.7454 95.043 38.5918C92.4714 39.4056 90.2578 39.8451 88.4023 39.9102C86.5794 39.9427 84.9193 39.5846 83.4219 38.8359C81.9245 38.0547 81.1758 36.3945 81.1758 33.8555C91.1042 11.2969 103.995 0.0175781 119.848 0.0175781ZM87.3281 29.3145C85.3424 33.0579 85.5703 35.2389 88.0117 35.8574C90.4857 36.4434 95.5801 34.4089 103.295 29.7539C111.042 25.099 116.039 21.0951 118.285 17.7422C120.564 14.3568 121.687 11.2318 121.654 8.36719C121.654 5.47005 119.115 4.15169 114.037 4.41211C108.959 4.67253 102.807 8.80664 95.5801 16.8145C92.097 21.4043 89.3464 25.571 87.3281 29.3145ZM146.947 12.3223C147.663 12.127 148.135 12.3711 148.363 13.0547C148.624 13.7057 148.135 15.0566 146.898 17.1074L144.604 22.1855L146.312 22.332L151.684 23.3086C152.335 24.2852 152.172 24.9688 151.195 25.3594C145.368 24.0898 141.658 25.5221 140.062 29.6562L138.012 33.0742C137.426 33.4648 136.938 33.3346 136.547 32.6836C136.482 30.8932 137.149 28.582 138.549 25.75L132.152 25.2617H129.223C128.083 24.6107 128.279 23.7969 129.809 22.8203L133.861 22.5762L137.035 22.332L140.648 21.9414L143.285 16.7656C145.043 13.9661 146.264 12.485 146.947 12.3223Z" fill="#3A4143"/>
</svg>

<svg width="153" height="40" viewBox="0 0 153 40" fill="none" xmlns="http://www.w3.org/2000/svg"><path d="M40.941.018c3.158 0 5.078.732 5.762 2.197.684 1.465.781 3.125.293 4.98-1.595 2.442-3.548 4.379-5.86 5.81-3.906 2.117-5.712 4.167-5.42 6.153-1.073 7.585-3.808 12.582-8.202 14.99-4.362 2.377-9.44 4.02-15.235 4.932-3.483-.52-6.168-1.432-8.056-2.734C1.683 35.499.609 34.035 1 31.95c.358-2.083 1.514-3.157 3.467-3.223l2.637 4.932 5.615 1.27C18.61 34.31 23.038 32.846 26 30.535c2.995-2.344 4.704-5.094 5.127-8.252l-1.172-3.125-1.611-2.002C36.742 11.688 41.38 8.45 42.26 7.44c.781-3.645-1.677-4.345-7.373-2.1-4.818 3.647-7.194 6.072-7.13 7.276.098 1.172-.292 1.79-1.171 1.856-.879.032-1.595-.537-2.148-1.71.162-2.18 2.018-4.98 5.566-8.398C33.389 1.466 37.035.018 40.94.018zm50.684 3.76c-3.874-.098-7.992.08-12.353.536-4.656.228-8.008 1.71-10.06 4.444l-5.37 7.275c2.67-.358 5.875-.13 9.619.684 3.776.781 5.664 3.141 5.664 7.08-3.809 6.478-9.766 11.214-17.871 14.209l-5.518 1.367c-5.078.13-8.138-.928-9.18-3.174-.162-1.758.83-2.718 2.98-2.88 1.236 2.018 3.515 2.896 6.835 2.636 4.264-.781 7.47-2.002 9.62-3.662 4.166-2.441 6.868-4.606 8.105-6.494 1.27-1.888 1.578-3.353.927-4.395-.65-1.041-2.587-1.823-5.81-2.343l-5.322-.05-3.516 2.882c-1.53.162-2.523-.472-2.978-1.905v-1.953c3.743-5.37 8.024-10.628 12.841-15.771C71.443 1.124 79.532.669 94.506.896c.065 1.335-.895 2.295-2.881 2.881zm28.223-3.76c4.004.944 6.233 2.718 6.689 5.322.456 2.604-.423 6.217-2.637 10.84-2.213 4.59-6.933 9.26-14.16 14.013-7.194 4.753-12.093 7.552-14.697 8.399-2.572.814-4.785 1.253-6.64 1.318-1.824.033-3.484-.325-4.981-1.074-1.498-.781-2.246-2.441-2.246-4.98C91.104 11.296 103.995.017 119.848.017zm-32.52 29.296c-1.986 3.744-1.758 5.925.684 6.543 2.474.586 7.568-1.448 15.283-6.103 7.747-4.655 12.744-8.659 14.99-12.012 2.279-3.385 3.402-6.51 3.369-9.375 0-2.897-2.539-4.215-7.617-3.955-5.078.26-11.23 4.395-18.457 12.402-3.483 4.59-6.234 8.757-8.252 12.5zm59.619-16.992c.716-.195 1.188.05 1.416.733.261.65-.228 2.002-1.465 4.052l-2.294 5.079 1.708.146 5.372.977c.651.976.488 1.66-.489 2.05-5.827-1.27-9.537.163-11.133 4.297l-2.05 3.418c-.586.39-1.074.26-1.465-.39-.065-1.79.602-4.102 2.002-6.934l-6.397-.488h-2.929c-1.14-.651-.944-1.465.586-2.442l4.052-.244 3.174-.244 3.613-.39 2.637-5.176c1.758-2.8 2.979-4.281 3.662-4.444z" fill="#3A4143"/></svg>
